X:2609
T:Hole in the Hedge
O:england
R:double jig
M:6/8
L:1/8
K:G
C2E EDE|GED E2D|C2E EDE|GEC D2E|
C2E EDE|GEG c3|cde dcA|GEC D2E:|
c2e dcA|GEG GAB|c2e dcA|GEC D2E|
c2e dcA|GEG GAB|cBc AcA|GEC DED:|


